src/assets/SmileasyPaymentPlan/bubble_orange.svg

<svg height="122" viewBox="0 0 300 122" width="300" xmlns="http://www.w3.org/2000/svg" xmlns:xlink="http://www.w3.org/1999/xlink"><defs><path id="a" d="m39.1709153 86c-8.4085196 0-12.4582458-15.0147767-14.1399498-8.461646-1.6817039 6.5531307-35.3157825 9.8296961-21.86215106 6.5531307 8.96908766-2.1843769 13.48407436-13.5656802 13.54496026-34.1439099-.2757894-18.6989852-.2757894-28.8067702 0-30.3233549.0243142-.1337053.1195481-.2459313.2857018-.3366779l.0005235-1.3475414c0-9.90798874 8.0320119-17.9400006 17.9400006-17.9400006h215.1199984c9.907989 0 17.940001 8.03201186 17.940001 17.9400006v50.1199988c0 9.9079887-8.032012 17.9400006-17.940001 17.9400006z"/><filter id="b" height="164%" width="120.5%" x="-10.3%" y="-30.8%"><feOffset dx="0" dy="6" in="SourceAlpha" result="shadowOffsetOuter1"/><feGaussianBlur in="shadowOffsetOuter1" result="shadowBlurOuter1" stdDeviation="5"/><feColorMatrix in="shadowBlurOuter1" result="shadowMatrixOuter1" type="matrix" values="0 0 0 0 0   0 0 0 0 0   0 0 0 0 0  0 0 0 0.141176471 0"/><feOffset dx="0" dy="1" in="SourceAlpha" result="shadowOffsetOuter2"/><feGaussianBlur in="shadowOffsetOuter2" result="shadowBlurOuter2" stdDeviation="9"/><feColorMatrix in="shadowBlurOuter2" result="shadowMatrixOuter2" type="matrix" values="0 0 0 0 0   0 0 0 0 0   0 0 0 0 0  0 0 0 0.121568627 0"/><feMorphology in="SourceAlpha" operator="erode" radius="0.5" result="shadowSpreadOuter3"/><feOffset dx="0" dy="3" in="shadowSpreadOuter3" result="shadowOffsetOuter3"/><feGaussianBlur in="shadowOffsetOuter3" result="shadowBlurOuter3" stdDeviation="2.5"/><feColorMatrix in="shadowBlurOuter3" result="shadowMatrixOuter3" type="matrix" values="0 0 0 0 0   0 0 0 0 0   0 0 0 0 0  0 0 0 0.2 0"/><feMerge><feMergeNode in="shadowMatrixOuter1"/><feMergeNode in="shadowMatrixOuter2"/><feMergeNode in="shadowMatrixOuter3"/></feMerge></filter></defs><g fill="none" fill-rule="evenodd" opacity=".9" transform="matrix(-1 0 0 1 286 17)"><use fill="#000" filter="url(#b)" xlink:href="#a"/><use fill="#f05024" fill-rule="evenodd" xlink:href="#a"/></g></svg>

<?xml version="1.0" encoding="UTF-8"?>
<svg width="300px" height="122px" viewBox="0 0 300 122" version="1.1" xmlns="http://www.w3.org/2000/svg" xmlns:xlink="http://www.w3.org/1999/xlink">
    <title>bubble_orange</title>
    <defs>
        <path d="M39.1709153,86 C30.7623957,86 26.7126695,70.9852233 25.0309655,77.538354 C23.3492616,84.0914847 -10.284817,87.3680501 3.16881444,84.0914847 C12.1379021,81.9071078 16.6528888,70.5258045 16.7137747,49.9475748 C16.4379853,31.2485896 16.4379853,21.1408046 16.7137747,19.6242199 C16.7380889,19.4905146 16.8333228,19.3782886 16.9994765,19.287542 L17,17.9400006 C17,8.03201186 25.0320119,-1.82006801e-15 34.9400006,0 L34.9400006,0 L250.059999,0 C259.967988,1.82006801e-15 268,8.03201186 268,17.9400006 L268,17.9400006 L268,68.0599994 C268,77.9679881 259.967988,86 250.059999,86 L250.059999,86 Z" id="path-1"></path>
        <filter x="-10.3%" y="-30.8%" width="120.5%" height="164.0%" filterUnits="objectBoundingBox" id="filter-2">
            <feOffset dx="0" dy="6" in="SourceAlpha" result="shadowOffsetOuter1"></feOffset>
            <feGaussianBlur stdDeviation="5" in="shadowOffsetOuter1" result="shadowBlurOuter1"></feGaussianBlur>
            <feColorMatrix values="0 0 0 0 0   0 0 0 0 0   0 0 0 0 0  0 0 0 0.141176471 0" type="matrix" in="shadowBlurOuter1" result="shadowMatrixOuter1"></feColorMatrix>
            <feOffset dx="0" dy="1" in="SourceAlpha" result="shadowOffsetOuter2"></feOffset>
            <feGaussianBlur stdDeviation="9" in="shadowOffsetOuter2" result="shadowBlurOuter2"></feGaussianBlur>
            <feColorMatrix values="0 0 0 0 0   0 0 0 0 0   0 0 0 0 0  0 0 0 0.121568627 0" type="matrix" in="shadowBlurOuter2" result="shadowMatrixOuter2"></feColorMatrix>
            <feMorphology radius="0.5" operator="erode" in="SourceAlpha" result="shadowSpreadOuter3"></feMorphology>
            <feOffset dx="0" dy="3" in="shadowSpreadOuter3" result="shadowOffsetOuter3"></feOffset>
            <feGaussianBlur stdDeviation="2.5" in="shadowOffsetOuter3" result="shadowBlurOuter3"></feGaussianBlur>
            <feColorMatrix values="0 0 0 0 0   0 0 0 0 0   0 0 0 0 0  0 0 0 0.2 0" type="matrix" in="shadowBlurOuter3" result="shadowMatrixOuter3"></feColorMatrix>
            <feMerge>
                <feMergeNode in="shadowMatrixOuter1"></feMergeNode>
                <feMergeNode in="shadowMatrixOuter2"></feMergeNode>
                <feMergeNode in="shadowMatrixOuter3"></feMergeNode>
            </feMerge>
        </filter>
    </defs>
    <g id="Design" stroke="none" stroke-width="1" fill="none" fill-rule="evenodd" opacity="0.900000036">
        <g id="Smileeasy-Payment-Plan" transform="translate(-370.000000, -6102.000000)">
            <g id="Online-Calculator" transform="translate(0.000000, 5505.000000)">
                <g id="Group-24" transform="translate(295.000000, 232.000000)">
                    <g id="Group-15" transform="translate(93.000000, 36.000000)">
                        <g id="ballon_1" transform="translate(0.000000, 346.000000)">
                            <g id="bubble_orange" transform="translate(134.000000, 43.000000) scale(-1, 1) translate(-134.000000, -43.000000) ">
                                <use fill="black" fill-opacity="1" filter="url(#filter-2)" xlink:href="#path-1"></use>
                                <use fill="#F05024" fill-rule="evenodd" xlink:href="#path-1"></use>
                            </g>
                        </g>
                    </g>
                </g>
            </g>
        </g>
    </g>
</svg>
